SVG_Azure_All/Compliance.svg

<?xml version="1.0" encoding="UTF-8" standalone="no"?>
<!-- Generated by Microsoft Visio, SVG Export Compliance.svg Page-1 -->

<svg
   xmlns:dc="http://purl.org/dc/elements/1.1/"
   xmlns:cc="http://creativecommons.org/ns#"
   xmlns:rdf="http://www.w3.org/1999/02/22-rdf-syntax-ns#"
   xmlns:svg="http://www.w3.org/2000/svg"
   xmlns="http://www.w3.org/2000/svg"
   xmlns:sodipodi="http://sodipodi.sourceforge.net/DTD/sodipodi-0.dtd"
   xmlns:inkscape="http://www.inkscape.org/namespaces/inkscape"
   width="0.629861in"
   height="0.78749973in"
   viewBox="0 0 45.35002 56.699782"
   xml:space="preserve"
   class="st7"
   version="1.1"
   id="svg50"
   sodipodi:docname="Compliance.svg"
   style="font-size:12px;overflow:visible;color-interpolation-filters:sRGB;fill:none;fill-rule:evenodd;stroke-linecap:square;stroke-miterlimit:3"
   inkscape:version="0.92.5 (2060ec1f9f, 2020-04-08)"><metadata
   id="metadata54"><rdf:RDF><cc:Work
       rdf:about=""><dc:format>image/svg+xml</dc:format><dc:type
         rdf:resource="http://purl.org/dc/dcmitype/StillImage" /></cc:Work></rdf:RDF></metadata><sodipodi:namedview
   pagecolor="#ffffff"
   bordercolor="#666666"
   borderopacity="1"
   objecttolerance="10"
   gridtolerance="10"
   guidetolerance="10"
   inkscape:pageopacity="0"
   inkscape:pageshadow="2"
   inkscape:window-width="640"
   inkscape:window-height="480"
   id="namedview52"
   showgrid="false"
   inkscape:zoom="1.2853425"
   inkscape:cx="30.23639"
   inkscape:cy="37.800387"
   inkscape:window-x="0"
   inkscape:window-y="0"
   inkscape:window-maximized="0"
   inkscape:current-layer="svg50" />
	<style
   type="text/css"
   id="style2">
	<![CDATA[
		.st1 {fill:#ffffff;stroke:none;stroke-linecap:butt;stroke-width:40.5067}
		.st2 {fill:url(#grad0-8);stroke:none;stroke-linecap:butt;stroke-width:40.5067}
		.st3 {fill:#0078d4;stroke:none;stroke-linecap:butt;stroke-width:40.5067}
		.st4 {fill:#b31b1b;stroke:none;stroke-linecap:butt;stroke-width:40.5067}
		.st5 {fill:#e62323;stroke:none;stroke-linecap:butt;stroke-width:40.5067}
		.st6 {fill:#ffd400;stroke:none;stroke-linecap:butt;stroke-width:40.5067}
		.st7 {fill:none;fill-rule:evenodd;font-size:12px;overflow:visible;stroke-linecap:square;stroke-miterlimit:3}
	]]>
	</style>

	<defs
   id="Patterns_And_Gradients">
		<linearGradient
   id="grad0-8"
   x1="-9.4492931e-06"
   y1="72.449559"
   x2="50.708437"
   y2="72.449559"
   gradientTransform="scale(0.89432866,1.1181572)"
   gradientUnits="userSpaceOnUse">
			<stop
   offset="0"
   stop-color="#0078d4"
   stop-opacity="1"
   id="stop4" />
			<stop
   offset="0.82"
   stop-color="#5ea0ef"
   stop-opacity="1"
   id="stop6" />
		</linearGradient>
	</defs>
	<g
   id="g48"
   transform="translate(-40.506692,-40.503574)">
		<title
   id="title10">Page-1</title>
		<g
   id="group6276-1"
   transform="translate(40.5067,-40.5067)">
			<title
   id="title12">Compliance</title>
			<g
   id="group6277-2">
				<title
   id="title14">g20</title>
				<g
   id="shape6278-3"
   transform="translate(0.32676,-0.433534)">
					<title
   id="title16">path11</title>
					<path
   d="M 25.62,81.88 H 1.86 A 1.86253,1.90088 -180 0 0 0,83.78 v 52.03 a 1.86253,1.90088 -180 0 0 1.86,1.9 h 40.98 a 1.86253,1.90088 -180 0 0 1.86,-1.9 V 101.39 A 1.89521,1.93423 -180 0 0 42.84,99.46 H 29.25 A 1.82986,1.86753 0 0 1 27.38,97.55 V 83.78 a 1.86253,1.90088 -180 0 0 -1.76,-1.9 z"
   class="st1"
   id="path18"
   inkscape:connector-curvature="0"
   style="fill:#ffffff;stroke:none;stroke-width:40.50669861;stroke-linecap:butt" />
				</g>
				<g
   id="shape6279-5">
					<title
   id="title21">path13</title>
					<path
   d="m 24.96,83.88 v 13.07 a 4.70535,4.80222 -180 0 0 4.71,4.77 h 12.91 v 33.12 H 2.78 V 83.88 Z m 0.98,-2.87 H 1.9 A 1.89521,1.93423 -180 0 0 0,82.95 v 52.82 a 1.89521,1.93423 -180 0 0 1.9,1.94 h 41.56 a 1.89521,1.93423 -180 0 0 1.89,-1.94 V 100.82 A 1.89521,1.93423 -180 0 0 43.46,98.89 H 29.67 a 1.89521,1.93423 0 0 1 -1.9,-1.94 v -14 a 1.89521,1.93423 -180 0 0 -1.83,-1.94 z"
   class="st2"
   id="path23"
   inkscape:connector-curvature="0"
   style="fill:url(#grad0-8);stroke:none;stroke-width:40.50669861;stroke-linecap:butt" />
				</g>
				<g
   id="shape6280-9"
   transform="translate(27.1211,-38.3511)">
					<title
   id="title26">path15</title>
					<path
   d="M 17.51,137.71 0,119.8 v 14.57 a 3.2676,3.33488 -180 0 0 3.27,3.34 z"
   class="st3"
   id="path28"
   inkscape:connector-curvature="0"
   style="fill:#0078d4;stroke:none;stroke-width:40.50669861;stroke-linecap:butt" />
				</g>
				<g
   id="shape6281-11"
   transform="translate(17.1222,-8.01629)">
					<title
   id="title31">a3a9e1d3-9e08-4e6c-b1f3-95c11e8</title>
					<path
   d="m 10.16,124.65 a 7.2214,7.37008 0 0 1 -9.57,0 L 0,136.75 a 0.947605,0.967114 -180 0 0 1.6338,0.73367 L 5.29,133.65 l 3.73,3.74 a 0.947605,0.967114 -180 0 0 1.60113,-0.73367 z"
   class="st4"
   id="path33"
   inkscape:connector-curvature="0"
   style="fill:#b31b1b;stroke:none;stroke-width:40.50669861;stroke-linecap:butt" />
				</g>
				<g
   id="shape6282-13"
   transform="translate(14.0834,-18.5753)">
					<title
   id="title36">a09a1db5-9087-43a3-902a-422185a</title>
					<ellipse
   cx="8.5284405"
   cy="128.96899"
   rx="8.5284405"
   ry="8.73738"
   class="st5"
   id="ellipse38"
   style="fill:#e62323;stroke:none;stroke-width:40.50669861;stroke-linecap:butt" />
				</g>
				<g
   id="shape6283-15"
   transform="translate(16.142,-20.6762)">
					<title
   id="title41">ac490612-dbc7-498b-b2fc-d820fcb</title>
					<ellipse
   cx="6.4698501"
   cy="131.07001"
   rx="6.4698501"
   ry="6.6364102"
   class="st6"
   id="ellipse43"
   style="fill:#ffd400;stroke:none;stroke-width:40.50669861;stroke-linecap:butt" />
				</g>
			</g>
		</g>
	</g>
</svg>

<?xml version="1.0" encoding="UTF-8" standalone="no"?>
<!DOCTYPE svg PUBLIC "-//W3C//DTD SVG 1.1//EN" "http://www.w3.org/Graphics/SVG/1.1/DTD/svg11.dtd">
<!-- Generated by Microsoft Visio, SVG Export Compliance.svg Page-1 -->
<svg xmlns="http://www.w3.org/2000/svg" xmlns:xlink="http://www.w3.org/1999/xlink" xmlns:ev="http://www.w3.org/2001/xml-events"
		width="1.75511in" height="1.91259in" viewBox="0 0 126.368 137.706" xml:space="preserve" color-interpolation-filters="sRGB"
		class="st7">
	<style type="text/css">
	<![CDATA[
		.st1 {fill:#ffffff;stroke:none;stroke-linecap:butt;stroke-width:40.5067}
		.st2 {fill:url(#grad0-8);stroke:none;stroke-linecap:butt;stroke-width:40.5067}
		.st3 {fill:#0078d4;stroke:none;stroke-linecap:butt;stroke-width:40.5067}
		.st4 {fill:#b31b1b;stroke:none;stroke-linecap:butt;stroke-width:40.5067}
		.st5 {fill:#e62323;stroke:none;stroke-linecap:butt;stroke-width:40.5067}
		.st6 {fill:#ffd400;stroke:none;stroke-linecap:butt;stroke-width:40.5067}
		.st7 {fill:none;fill-rule:evenodd;font-size:12px;overflow:visible;stroke-linecap:square;stroke-miterlimit:3}
	]]>
	</style>

	<defs id="Patterns_And_Gradients">
		<linearGradient id="grad0-8" x1="0" y1="0" x2="1" y2="0" gradientTransform="rotate(-90 0.5 0.5)">
			<stop offset="0" stop-color="#0078d4" stop-opacity="1"/>
			<stop offset="0.82" stop-color="#5ea0ef" stop-opacity="1"/>
		</linearGradient>
	</defs>
	<g>
		<title>Page-1</title>
		<g id="group6108-1" transform="translate(40.5067,-40.5067)">
			<title>Compliance</title>
			<g id="group6109-2">
				<title>g20</title>
				<g id="shape6110-3" transform="translate(0.32676,-0.433534)">
					<title>path11</title>
					<path d="M25.62 81.88 L1.86 81.88 A1.86253 1.90088 -180 0 0 -0 83.78 L0 135.81 A1.86253 1.90088 -180 0 0 1.86
								 137.71 L42.84 137.71 A1.86253 1.90088 -180 0 0 44.7 135.81 L44.7 101.39 A1.89521 1.93423 -180 0
								 0 42.84 99.46 L29.25 99.46 A1.82986 1.86753 0 0 1 27.38 97.55 L27.38 83.78 A1.86253 1.90088 -180
								 0 0 25.62 81.88 Z" class="st1"/>
				</g>
				<g id="shape6111-5">
					<title>path13</title>
					<path d="M24.96 83.88 L24.96 96.95 A4.70535 4.80222 -180 0 0 29.67 101.72 L42.58 101.72 L42.58 134.84 L2.78 134.84
								 L2.78 83.88 L24.96 83.88 ZM25.94 81.01 L1.9 81.01 A1.89521 1.93423 -180 0 0 0 82.95 L0 135.77 A1.89521
								 1.93423 -180 0 0 1.9 137.71 L43.46 137.71 A1.89521 1.93423 -180 0 0 45.35 135.77 L45.35 100.82 A1.89521
								 1.93423 -180 0 0 43.46 98.89 L29.67 98.89 A1.89521 1.93423 0 0 1 27.77 96.95 L27.77 82.95 A1.89521
								 1.93423 -180 0 0 25.94 81.01 Z" class="st2"/>
				</g>
				<g id="shape6112-9" transform="translate(27.1211,-38.3511)">
					<title>path15</title>
					<path d="M17.51 137.71 L0 119.8 L0 134.37 A3.2676 3.33488 -180 0 0 3.27 137.71 L17.51 137.71 Z" class="st3"/>
				</g>
				<g id="shape6113-11" transform="translate(17.1222,-8.01629)">
					<title>a3a9e1d3-9e08-4e6c-b1f3-95c11e8</title>
					<path d="M10.16 124.65 A7.2214 7.37008 0 0 1 0.59 124.65 L0 136.75 a0.947605 0.967114 -180 0 0 1.6338 0.733673
								 L5.29 133.65 L9.02 137.39 a0.947605 0.967114 -180 0 0 1.60113 -0.733673 L10.16 124.65 Z"
							class="st4"/>
				</g>
				<g id="shape6114-13" transform="translate(14.0834,-18.5753)">
					<title>a09a1db5-9087-43a3-902a-422185a</title>
					<ellipse cx="8.52844" cy="128.969" rx="8.52844" ry="8.73738" class="st5"/>
				</g>
				<g id="shape6115-15" transform="translate(16.142,-20.6762)">
					<title>ac490612-dbc7-498b-b2fc-d820fcb</title>
					<ellipse cx="6.46985" cy="131.07" rx="6.46985" ry="6.63641" class="st6"/>
				</g>
			</g>
		</g>
	</g>
</svg>
